src/client/assets/icons/website.svg

<svg xmlns="http://www.w3.org/2000/svg" width="24" height="24" viewBox="0 0 24 24"><path d="M12 0c-6.627 0-12 5.373-12 12s5.373 12 12 12 12-5.373 12-12-5.373-12-12-12zm1 16.057v-3.057h2.994c-.059 1.143-.212 2.24-.456 3.279-.823-.12-1.674-.188-2.538-.222zm1.957 2.162c-.499 1.33-1.159 2.497-1.957 3.456v-3.62c.666.028 1.319.081 1.957.164zm-1.957-7.219v-3.015c.868-.034 1.721-.103 2.548-.224.238 1.027.389 2.111.446 3.239h-2.994zm0-5.014v-3.661c.806.969 1.471 2.15 1.971 3.496-.642.084-1.3.137-1.971.165zm2.703-3.267c1.237.496 2.354 1.228 3.29 2.146-.642.234-1.311.442-2.019.607-.344-.992-.775-1.91-1.271-2.753zm-7.241 13.56c-.244-1.039-.398-2.136-.456-3.279h2.994v3.057c-.865.034-1.714.102-2.538.222zm2.538 1.776v3.62c-.798-.959-1.458-2.126-1.957-3.456.638-.083 1.291-.136 1.957-.164zm-2.994-7.055c.057-1.128.207-2.212.446-3.239.827.121 1.68.19 2.548.224v3.015h-2.994zm1.024-5.179c.5-1.346 1.165-2.527 1.97-3.496v3.661c-.671-.028-1.329-.081-1.97-.165zm-2.005-.35c-.708-.165-1.377-.373-2.018-.607.937-.918 2.053-1.65 3.29-2.146-.496.844-.927 1.762-1.272 2.753zm-.549 1.918c-.264 1.151-.434 2.36-.492 3.611h-3.933c.165-1.658.739-3.197 1.617-4.518.88.361 1.816.67 2.808.907zm.009 9.262c-.988.236-1.92.542-2.797.9-.89-1.328-1.471-2.879-1.637-4.551h3.934c.058 1.265.231 2.488.5 3.651zm.553 1.917c.342.976.768 1.881 1.257 2.712-1.223-.49-2.326-1.211-3.256-2.115.636-.229 1.299-.435 1.999-.597zm9.924 0c.7.163 1.362.367 1.999.597-.931.903-2.034 1.625-3.257 2.116.489-.832.915-1.737 1.258-2.713zm.553-1.917c.27-1.163.442-2.386.501-3.651h3.934c-.167 1.672-.748 3.223-1.638 4.551-.877-.358-1.81-.664-2.797-.9zm.501-5.651c-.058-1.251-.229-2.46-.492-3.611.992-.237 1.929-.546 2.809-.907.877 1.321 1.451 2.86 1.616 4.518h-3.933z"/></svg>

<?xml version="1.0" encoding="utf-8"?>
<!-- Generator: Adobe Illustrator 16.0.0, SVG Export Plug-In . SVG Version: 6.00 Build 0)  -->
<!DOCTYPE svg PUBLIC "-//W3C//DTD SVG 1.1//EN" "http://www.w3.org/Graphics/SVG/1.1/DTD/svg11.dtd">
<svg version="1.1" id="Layer_1" xmlns="http://www.w3.org/2000/svg" xmlns:xlink="http://www.w3.org/1999/xlink" x="0px" y="0px"
	 width="24px" height="24px" viewBox="0 0 24 24" enable-background="new 0 0 24 24" xml:space="preserve">
<path fill="#2740DB" d="M12,0C5.373,0,0,5.373,0,12s5.373,12,12,12s12-5.373,12-12S18.627,0,12,0z M13,16.057V13h2.994
	c-0.059,1.143-0.212,2.24-0.456,3.279C14.715,16.159,13.863,16.091,13,16.057z M14.957,18.219c-0.499,1.33-1.159,2.497-1.957,3.456
	v-3.62C13.666,18.083,14.318,18.136,14.957,18.219z M13,11V7.985c0.868-0.034,1.721-0.103,2.548-0.224
	c0.238,1.027,0.39,2.111,0.446,3.239H13z M13,5.986V2.325c0.807,0.969,1.471,2.15,1.971,3.496C14.329,5.905,13.671,5.958,13,5.986z
	 M15.703,2.719c1.236,0.496,2.354,1.228,3.29,2.146c-0.642,0.234-1.312,0.442-2.019,0.607C16.63,4.48,16.199,3.562,15.703,2.719z
	 M8.462,16.279C8.218,15.24,8.064,14.143,8.006,13H11v3.057C10.135,16.091,9.286,16.159,8.462,16.279z M11,18.055v3.62
	c-0.798-0.959-1.458-2.126-1.957-3.456C9.681,18.136,10.334,18.083,11,18.055z M8.006,11c0.057-1.128,0.207-2.212,0.446-3.239
	c0.827,0.121,1.68,0.19,2.548,0.224V11H8.006z M9.03,5.821c0.5-1.346,1.165-2.527,1.97-3.496v3.661
	C10.329,5.958,9.671,5.905,9.03,5.821z M7.025,5.471C6.317,5.306,5.648,5.098,5.007,4.864c0.937-0.918,2.053-1.65,3.29-2.146
	C7.801,3.562,7.37,4.48,7.025,5.471z M6.476,7.389C6.212,8.54,6.042,9.749,5.984,11H2.051C2.216,9.342,2.79,7.803,3.668,6.482
	C4.548,6.843,5.484,7.152,6.476,7.389z M6.485,16.65c-0.988,0.236-1.92,0.543-2.797,0.9C2.798,16.223,2.217,14.672,2.051,13h3.934
	C6.043,14.266,6.216,15.488,6.485,16.65z M7.038,18.568c0.342,0.976,0.768,1.881,1.257,2.711c-1.223-0.489-2.326-1.211-3.256-2.114
	C5.675,18.936,6.338,18.73,7.038,18.568z M16.962,18.568c0.7,0.162,1.362,0.367,1.999,0.597c-0.932,0.903-2.034,1.625-3.257,2.116
	C16.193,20.449,16.619,19.544,16.962,18.568z M17.516,16.65c0.27-1.162,0.441-2.385,0.5-3.65h3.935
	c-0.167,1.672-0.748,3.223-1.638,4.551C19.436,17.193,18.502,16.887,17.516,16.65z M18.016,11c-0.058-1.251-0.229-2.46-0.492-3.611
	c0.992-0.237,1.93-0.546,2.81-0.907c0.877,1.321,1.451,2.86,1.616,4.518H18.016z"/>
</svg>
